X:6085
T:Garrucha
C:Tradicional
S:Msica Tradicional Asturiana, (C) Tello & Tito. Asturies, 2001.
S:http://pagina.de/MusTradAst <telloytito@asturies.org>
A:Asturies
Z:Danzas y Bailes I
M:6/8
L:1/8
Q:3/8=76
K:D
|:DFF FED|C D2-D3|FAA AAG|[1 FAG G3:|[2 FAG GGF||EGF EDC|E D2-D3|D z2 z3|
